!!!!SEGMENT: pl-wnifc--6730-n--010_sowinski-wojciech--chants-religieux-de-la-pologne-op-93-ancien-noel-w-zlobie-lezy.krn
!!!cenid: 18xx:4024
!!!COM: Sowiński, Wojciech
!!!COM-rismID: pe30008543
!!!CDT: ~1803-1880/03/05
!!!CNT:
!!!OTL: Chants religieux de la Pologne op. 93
!!!PDT: 1830
!!!AGN:
!!!SMS-siglum: PL-Wnifc
!!!SMS-shelfmark: 6730/n
!!!SMS-shelfwork: 010 W
!!!SMS-variant:
!!!SMS-altvar:
!!!NIFC-rismSourceID: 1001138221
!!!NIFC-rismChildID: 1001138232
!!!NIFC-islandoraID: nifc:213350
!!!URL-pdf-islandora: https://repozytorium.nifc.pl/islandora/object/nifc%3A213350/datastream/PDF/view
!!!URL-scan: https://polish.musicsources.pl/pl/lokalizacje/galeria/druki-muzyczne/16913 @EN{Scan on Polish Music Sources Website} @PL{Skany w portalu Dziedzictwo Muzyki Polskiej w otwartym dostępie}
!!!ONB-nifc: UWAGA: str. 41-44
!!!AIN: 1 calto 2 organ 2 soprn
!!!key: E
**kern	**kern	**dynam	**kern	**text	**dynam	**kern	**text	**dynam	**kern	**text	**dynam
*part5	*part4	*part4	*part3	*part3	*part3	*part2	*part2	*part2	*part1	*part1	*part1
*staff5	*staff4	*	*staff3	*staff3	*	*staff2	*staff2	*	*staff1	*staff1	*
*I"Organo	*I"ORGUE.	*	*I"CONTRALTO.	*	*	*I"2o. DESSUS.	*	*	*I"1er. DESSUS.	*	*
*	*I'org	*	*I'CA	*	*	*I'2 D	*	*	*I'1 D	*	*
*Iorgan	*Iorgan	*	*Icalto	*	*	*Isoprn	*	*	*Isoprn	*	*
*ICklav	*ICklav	*	*ICvox	*	*	*ICvox	*	*	*ICvox	*	*
*clefF4	*clefG2	*	*clefG2	*	*	*clefG2	*	*	*clefG2	*	*
*k[f#c#g#]	*k[f#c#g#]	*	*k[f#c#g#]	*	*	*k[f#c#g#]	*	*	*k[f#c#g#]	*	*
*E:	*E:	*	*E:	*	*	*E:	*	*	*E:	*	*
*M3/4	*M3/4	*	*M3/4	*	*	*M3/4	*	*	*M3/4	*	*
=1	=1	=1	=1	=1	=1	=1	=1	=1	=1	=1	=1
!	!LO:TX:a:t=Allo. con moto.	!	!	!	!	!	!	!	!LO:TX:a:t=Allo. con moto.	!	!
2AA\ 2A	8c#/L 8e	f	2.r	.	.	2.r	.	.	2.r	.	.
.	8c#/J 8e	.	.	.	.	.	.	.	.	.	.
.	4c#/ 4a	.	.	.	.	.	.	.	.	.	.
4AA\ 4A	4c#/ 4e 4a	.	.	.	.	.	.	.	.	.	.
=2	=2	=2	=2	=2	=2	=2	=2	=2	=2	=2	=2
2EE/ 2E	8B/L 8g#	.	2.r	.	.	2.r	.	.	2.r	.	.
.	8c#/J 8e 8a	.	.	.	.	.	.	.	.	.	.
.	4e/ 4g# 4b	.	.	.	.	.	.	.	.	.	.
8EE/L 8E	4e/ 4g# 4b	.	.	.	.	.	.	.	.	.	.
8DD/J 8D	.	.	.	.	.	.	.	.	.	.	.
=3	=3	=3	=3	=3	=3	=3	=3	=3	=3	=3	=3
8CC#/L 8C#	8e/L 8a 8cc#	<	2.r	.	.	2.r	.	.	2.r	.	.
8BBB/J 8BB	8e/J 8a 8dd	.	.	.	.	.	.	.	.	.	.
4AAA/ 4AA	4e/ 4a 4cc# 4ee	.	.	.	.	.	.	.	.	.	.
4DD/ 4D	4f#/ 4b 4dd	[[	.	.	.	.	.	.	.	.	.
=4	=4	=4	=4	=4	=4	=4	=4	=4	=4	=4	=4
4EE/ 4E	8e/L 8a 8cc#	>	2.r	.	.	2.r	.	.	2.r	.	.
.	8d/J 8g# 8b	.	.	.	.	.	.	.	.	.	.
2AA/	2c#/ 2e 2a	]]	.	.	.	.	.	.	.	.	.
=5	=5	=5	=5	=5	=5	=5	=5	=5	=5	=5	=5
!	!	!	!	!	!LO:DY:a	!	!	!	!	!	!LO:DY:a
2AA\ 2A	4c#/ 4e	p	8c#/	Ac-	p	8e/	Ac-	.	8e/	Ac-	p
.	.	.	8c#/	-cou-	.	8e/	-cou-	.	8e/	-cou-	.
.	2c#/ 2e 2a	.	4c#/	-rez	.	4e/	-rez	.	4a/	-rez	.
4AA\ 4A	.	.	4c#/	ber-	.	4e/	ber-	.	4a/	ber-	.
!LO:LB:g=original	!LO:LB:g=original	!	!LO:LB:g=original	!	!	!LO:LB:g=original	!	!	!LO:LB:g=original	!	!
=6	=6	=6	=6	=6	=6	=6	=6	=6	=6	=6	=6
2EE/ 2E	8c#/L 8e 8g#	.	8e/	-gers	.	8e/	-gers	.	8g#/	-gers	.
.	8c#/J 8e 8a	.	8e/	fi-	.	8f#/	fi-	.	8a/	fi-	.
.	2e/ 2g# 2b	.	4e/	-dè-	.	4g#/	-dè-	.	4b/	-dè-	.
4DD/ 4D	.	.	4e/	-les	.	4g#/	-les	.	4b/	-les	.
=7	=7	=7	=7	=7	=7	=7	=7	=7	=7	=7	=7
!	!	!LO:HP:t=cres.	!	!	!	!	!	!LO:HP:t=cres.	!	!	!LO:HP:t=cres.
8EE/L 8E	8e/L 8a 8cc#	<	8A/	l'heu-	.	8a/	l'heu-	<	8cc#\	l'heu-	<
8DD/J 8D	8e/J 8a 8dd	.	8B/	-re	.	8a/	-re	.	8dd\	-re	.
4AAA/ 4AA	4e/ 4a 4cc# 4ee	.	4c#/	bé-	.	4a/	bé-	.	4ee\	bé-	.
4DD/ 4D	4f#/ 4b 4dd	.	4d/	-nie	.	4b/	-nie	.	4dd\	-nie	.
=8	=8	=8	=8	=8	=8	=8	=8	=8	=8	=8	=8
4EE/ 4E	8e/L 8a 8cc#	.	8e/	a	.	8a/	a	.	8cc#\	a	.
.	8d/J 8g# 8b	.	8e/	son-	.	8g#/	son-	.	8b\	son-	.
2AA/ 2A	4c#/ 4a	.	2c#/	-né	.	2a/	-né	.	2a/	-né	.
.	4e/	.	.	.	.	.	.	.	.	.	.
=9	=9	=9	=9	=9	=9	=9	=9	=9	=9	=9	=9
2AA/ 2A	8c#/L 8e	f	8c#/	An-	.	8e/	An-	.	8e/	Au-	.
.	8c#/J 8e	.	8c#/	-ges	.	8e/	-ges	.	8e/	-ges	.
.	4c#/ 4a	.	4A/	dé-	.	4c#/	dé-	.	4a/	dé-	.
4AA/ 4A	4c#/ 4e 4a	.	4c#/	-plo-	.	4e/	-plo-	.	4a/	-plo-	.
=10	=10	=10	=10	=10	=10	=10	=10	=10	=10	=10	=10
*	*^	*	*	*	*	*	*	*	*	*	*
2EE/ 2E	16g#/LL	4e\	.	8B/	-yez	.	8e/	-yez	.	(16g#/LL	-yez	.
.	16f#/	.	.	.	.	.	.	.	.	16f#/JJ)	.	.
.	16g#/	.	.	(16B/LL	vos	.	8e/	vos	.	(16g#/LL	vos	.
.	16a/JJ	.	.	16c#/JJ)	.	.	.	.	.	16a/JJ)	.	.
.	4e/ 4g# 4b	2ryy	.	4d/	ai-	.	4g#/	ai-	.	4b/	ai-	.
4DD/ 4D	4e/ 4g# 4b	.	.	4d/	-les	.	4g#/	-les	.	4b/	-les	.
!LO:PB:g=original	!LO:PB:g=original	!LO:PB:g=original	!	!LO:PB:g=original	!	!	!LO:PB:g=original	!	!	!LO:PB:g=original	!	!
*	*v	*v	*	*	*	*	*	*	*	*	*	*
=11	=11	=11	=11	=11	=11	=11	=11	=11	=11	=11	=11
!	!	!	!	!	!LO:HP:t=cres.	!	!	!	!	!	!LO:HP:t=cres.
8CC#/L 8C#	8e/L 8a 8cc#	f	8A/	Un	<	8a/	Un	.	8cc#\	Un	<
8BBB/J 8BB	8e/J 8a 8dd	.	8B/	sau-	.	8a/	sau-	.	8dd\	sau-	.
4AAA/ 4AA	4e/ 4a 4cc# 4ee	.	4c#/	-veur	.	4a/	-veur	.	4ee\	-veur	.
4DD/ 4D	4f#/ 4b 4dd	.	4d/	vous	.	4f#/	vous	.	4dd\	vous	.
=12	=12	=12	=12	=12	=12	=12	=12	=12	=12	=12	=12
8EE/L 8E	8e/L 8a 8cc#	.	8e/	est	.	8a/	est	.	8cc#\	est	.
8EE/J 8E	8d/J 8g# 8b	.	8d/	don-	.	8g#/	don-	.	8b\	don-	.
2AA/ 2A	2c#/ 2e 2a	.	2c#^>/	-né	.	2a^>/	-né	.	2a^>/	-né	.
=13||	=13||	=13||	=13||	=13||	=13||	=13||	=13||	=13||	=13||	=13||	=13||
!	!	!	!	!	!LO:DY:a	!	!	!LO:DY:a	!	!	!LO:DY:a
2FF#/ 2F#	8f#/L 8a	mf	8f#/	No-	mf	8f#/	No-	mf	8a/	No-	mf
.	8c#/J 8g#	.	8c#/	-tre	.	8c#/	-tre	.	8g#/	-tre	.
.	4A/ 4f#	.	4A/	maî-	.	4c#/	maî-	.	4f#/	maî-	.
4FF#/ 4F#	4A/ 4f#	.	4A/	-tre	.	4c#/	-tre	.	4f#/	-tre	.
=14	=14	=14	=14	=14	=14	=14	=14	=14	=14	=14	=14
4EE/ 4E	8d/L 8b	.	8e/	vient	.	8g#/	vient	.	8b/	vient	.
.	8c#/J 8a	.	8e/	de	.	8f#/	de	.	8a/	de	.
4EE/ 4E	4B/ 4g#	.	4e/	nai-	.	4e/	nai-	.	4g#/	nai-	.
4EE/ 4E	4e/	.	4e/	-tre	.	4e/	-tre	.	4g#/	-tre	.
=15	=15	=15	=15	=15	=15	=15	=15	=15	=15	=15	=15
!	!	!LO:HP:t=cres.	!	!	!	!	!	!	!	!	!LO:HP:t=cres.
8AAA/L 8AA	8e/L 8a 8cc#	<	8a/	sur	.	8a/	sur	.	8cc#\	sur	<
8EE/J	8d/J 8g# 8b	.	8e/	la	.	8g#/	la	.	8b\	la	.
4AA/	4c#/ 4e 4a	.	4c#/	pail-	.	4e/	pail-	.	4a/	pail-	.
4C#/	4e/ 4a	.	4c#/	-le	.	4e/	-le	.	4a/	-le	.
!LO:LB:g=original	!LO:LB:g=original	!	!LO:LB:g=original	!	!	!LO:LB:g=original	!	!	!LO:LB:g=original	!	!
=16	=16	=16	=16	=16	=16	=16	=16	=16	=16	=16	=16
4EE/ 4E	8e/L 8b 8dd	.	8e/	en	.	8b/	en	.	8dd\	en	.
.	8e/J 8a 8cc#	.	8e/	un	.	8a/	un	.	8cc#\	un	.
4EE/ 4E	4e/ 4g# 4b	.	4e/	ré-	.	4g#/	ré-	.	4b\	ré-	.
4DD/ 4D	4e/ 4g# 4b	.	4e/	-duit	.	4g#/	-duit	.	4b\	-duit	.
=17	=17	=17	=17	=17	=17	=17	=17	=17	=17	=17	=17
!	!	!	!	!	!	!	!	!	!	!	!LO:DY:a
8CC#/L 8C#	8e/L 8a 8cc#	f	8A/	ac-	.	8e/	ac-	.	8cc#\	ac-	f
8BBB/J 8BB	8e/J 8a 8dd	.	8B/	-cou-	.	8e/	-cou-	.	8dd\	-cou-	.
4AAA/ 4AA	4e/ 4cc# 4ee	.	4c#/	-rez	.	4e/	-rez	.	4ee\	-rez	.
4DD/ 4D	4f#/ 4b 4dd	.	4d/	il	.	4f#/	il	.	4dd^\	il	.
=18	=18	=18	=18	=18	=18	=18	=18	=18	=18	=18	=18
!	!LO:TX:b:t=rall.	!	!LO:TX:a:t=rall.	!	!	!LO:TX:a:t=rall	!	!	!LO:TX:a:t=rall.	!	!
8EE/L 8E	8e/L 8a 8cc#	.	8e/	est	.	8a/	est	.	8cc#\	est	.
8EE/J 8E	8d/J 8g# 8b	.	8d/	mi-	.	8g#/	mi-	.	8b\	mi-	.
2AAA/ 2AA	2c#/ 2e 2a	.	2c#^>/	-nuit	.	2a/	-nuit	.	2a;\	-nuit	.
=19||	=19||	=19||	=19||	=19||	=19||	=19||	=19||	=19||	=19||	=19||	=19||
*	*^	*	*	*	*	*	*	*	*	*	*
8A\L	8.c#/L 8.e	2ryy	p	2.r	.	.	2.r	.	.	2.r	.	.
8G#\	.	.	.	.	.	.	.	.	.	.	.	.
.	16c#/Jk 16e	.	.	.	.	.	.	.	.	.	.	.
8F#\	4c#^>/ 4a	.	.	.	.	.	.	.	.	.	.	.
8E\	.	.	.	.	.	.	.	.	.	.	.	.
8D\	4a/	8f#\L	.	.	.	.	.	.	.	.	.	.
8C#\J	.	8e\J	.	.	.	.	.	.	.	.	.	.
=20	=20	=20	=20	=20	=20	=20	=20	=20	=20	=20	=20	=20
8BB\L	8d/L 8g#	4ryy	.	2.r	.	.	2.r	.	.	2.r	.	.
8C#\	8e/J 8a	.	.	.	.	.	.	.	.	.	.	.
8D\	4.b/	8f#\L	.	.	.	.	.	.	.	.	.	.
8E\	.	8g#\	.	.	.	.	.	.	.	.	.	.
8F#\	.	8a\	.	.	.	.	.	.	.	.	.	.
8G#\J	8dd/	8b\J	.	.	.	.	.	.	.	.	.	.
*	*v	*v	*	*	*	*	*	*	*	*	*	*
=21	=21	=21	=21	=21	=21	=21	=21	=21	=21	=21	=21
8A\L	8a\L 8cc#	.	2.r	.	.	2.r	.	.	2.r	.	.
8G#\	8b\J 8ee	.	.	.	.	.	.	.	.	.	.
8F#\	8a\L 8dd	.	.	.	.	.	.	.	.	.	.
8E\J	8g#\ 8cc#	.	.	.	.	.	.	.	.	.	.
8D\L	8f#\ 8b	.	.	.	.	.	.	.	.	.	.
8C#\J	8e\J 8a	.	.	.	.	.	.	.	.	.	.
!LO:LB:g=original	!LO:LB:g=original	!	!LO:LB:g=original	!	!	!LO:LB:g=original	!	!	!LO:LB:g=original	!	!
=22	=22	=22	=22	=22	=22	=22	=22	=22	=22	=22	=22
8.BB^/L	8.e^/L 8.g# 8.dd	.	2.r	.	.	2.r	.	.	2.r	.	.
16AA/Jk	16e/Jk 16a 16cc#	.	.	.	.	.	.	.	.	.	.
2AA/	2e/ 2a 2cc#	.	.	.	.	.	.	.	.	.	.
=23	=23	=23	=23	=23	=23	=23	=23	=23	=23	=23	=23
!	!	!	!	!	!LO:DY:a	!	!	!LO:DY:a	!LO:TX:a:t=2e COUPLET.	!	!LO:DY:a
2AA\ 2A	8r	p	8c#/	Il	p	8e/	Il	p	8e/	Il	p
.	4e^/	.	8c#/	dort	.	8e/	dort	.	8e/	dort	.
.	.	.	4c#/	au-	.	4c#/	au-	.	4a/	au-	.
.	8qe/	.	.	.	.	.	.	.	.	.	.
.	8a\L	.	.	.	.	.	.	.	.	.	.
.	8qa/	.	.	.	.	.	.	.	.	.	.
4AA\ 4A	8cc#\	.	4c#/	-près	.	4e/	-près	.	4a/	-près	.
.	8qcc#/	.	.	.	.	.	.	.	.	.	.
.	8ee\J	.	.	.	.	.	.	.	.	.	.
=24	=24	=24	=24	=24	=24	=24	=24	=24	=24	=24	=24
2EE/ 2E	8r	.	8e/	de	.	8e/	de	.	8g#/	de	.
.	4e^/	.	8e/	sa	.	8f#/	sa	.	8a/	sa	.
.	.	.	4e/	me-	.	4g#/	me-	.	4b/	me-	.
.	8qe/	.	.	.	.	.	.	.	.	.	.
.	8g#\L	.	.	.	.	.	.	.	.	.	.
.	8qg#/	.	.	.	.	.	.	.	.	.	.
4EE/ 4E	8b\	.	4e/	re	.	4g#/	-re	.	4b/	-re	.
.	8qb/	.	.	.	.	.	.	.	.	.	.
.	8ee\J	.	.	.	.	.	.	.	.	.	.
=25	=25	=25	=25	=25	=25	=25	=25	=25	=25	=25	=25
!	!	!	!	!	!LO:HP:t=cres.	!	!	!LO:HP:t=cres.	!	!	!LO:HP:t=cres
2AA/ 2E	8r	.	8A/	Qui	<	8e/	Qui	<	8cc#\	Qui	<
.	4e/	.	8B/	le	.	8e/	le	.	8dd\	le	.
.	.	.	4c#/	berce	.	4e/	berce	.	4ee\	berce	.
.	8qa/	.	.	.	.	.	.	.	.	.	.
.	8cc#/L	.	.	.	.	.	.	.	.	.	.
4DD/ 4D	8f#/ 8dd	.	4d/	et	.	4f#/	et	.	4dd\	et	.
.	8fn/J 8b	.	.	.	.	.	.	.	.	.	.
=26	=26	=26	=26	=26	=26	=26	=26	=26	=26	=26	=26
*^	*	*	*	*	*	*	*	*	*	*	*
8C#/L	4EE\	8e/L 8a	.	8e/	lui	.	8a/	lui	.	8cc#\	lui	.
8BB/J	.	8b/J	.	8e/	sour-	.	8g#/	sour-	.	8b\	sou-	.
4AA/	2ryy	(>16cc#/LL	.	2c#/	-it	.	2a/	-it	.	2a\	-rit	.
!	!LO:LB:g=original	!	!	!LO:LB:g=original	!	!	!LO:LB:g=original	!	!	!LO:LB:g=original	!	!
.	.	16b/	.	.	.	.	.	.	.	.	.	.
.	.	16a/	.	.	.	.	.	.	.	.	.	.
.	.	16g#/JJ	.	.	.	.	.	.	.	.	.	.
4r	.	16f#/LL	.	.	.	.	.	.	.	.	.	.
.	.	16e/	.	.	.	.	.	.	.	.	.	.
.	.	16d/	.	.	.	.	.	.	.	.	.	.
.	.	16c#/JJ)	.	.	.	.	.	.	.	.	.	.
!LO:LB:g=original	!	!LO:LB:g=original	!	!	!	!	!	!	!	!	!	!
*v	*v	*	*	*	*	*	*	*	*	*	*	*
=27	=27	=27	=27	=27	=27	=27	=27	=27	=27	=27	=27
2AA\ 2A	(16e/LL	.	8c#/	Il	.	8e/	Il	.	8e/	Il	.
.	16f#/	.	.	.	.	.	.	.	.	.	.
.	16e/	.	8c#/	dort	.	8e/	dort	.	8e/	dort	.
.	16d/JJ)	.	.	.	.	.	.	.	.	.	.
.	8c#/	.	4c#/	en	.	4e/	en	.	4a/	en	.
.	8qe/	.	.	.	.	.	.	.	.	.	.
.	8a\L	.	.	.	.	.	.	.	.	.	.
.	8qa/	.	.	.	.	.	.	.	.	.	.
4AA\ 4A	8cc#\	.	4c#/	paix	.	4e/	paix	.	4a/	paix	.
.	8qcc#/	.	.	.	.	.	.	.	.	.	.
.	8ee\J	.	.	.	.	.	.	.	.	.	.
=28	=28	=28	=28	=28	=28	=28	=28	=28	=28	=28	=28
*^	*	*	*	*	*	*	*	*	*	*	*
(16B/LL	2E\	(16g#/LL	.	(16B/LL	et	.	8e/	et	.	(16g#/LL	et	.
16A/	.	16f#/	.	16A/JJ)	.	.	.	.	.	16f#/JJ)	.	.
16B/	.	16g#/	.	(16B/LL	la	.	8e/	la	.	(16g#/LL	la	.
16c#/JJ)	.	16a/JJ)	.	16c#/JJ)	.	.	.	.	.	16a/JJ)	.	.
8d/L	.	8b\	.	4e/	ter-	.	4g#/	ter-	.	4b/	ter-	.
.	.	8qe/	.	.	.	.	.	.	.	.	.	.
8B/	.	8g#\L	.	.	.	.	.	.	.	.	.	.
.	.	8qg#/	.	.	.	.	.	.	.	.	.	.
8G#/	8G#\L	8b\	.	4d/	-re	.	4g#/	-re	.	4b/	-re	.
.	.	8qb/	.	.	.	.	.	.	.	.	.	.
8E/J	8E\J	8ee\J	.	.	.	.	.	.	.	.	.	.
*v	*v	*	*	*	*	*	*	*	*	*	*	*
=29	=29	=29	=29	=29	=29	=29	=29	=29	=29	=29	=29
!	!	!	!	!	!LO:DY:a	!	!	!LO:DY:a	!	!	!LO:DY:a
8AA/L 8A	8e/L 8a 8cc#	f	8c#/	tres	f	8a/	tres	f	8cc#\	tres	f
8EE/J 8E	8e/J 8g# 8b 8dd	.	8B/	saille	.	8b/	saille	.	8dd\	saille	.
4AAA/ 4AA	4e/ 4a 4cc# 4ee	.	4A/	a	.	4cc#\	a	.	4ee\	a	.
4DD/ 4D	4f#/ 4b 4dd	.	4d^>/	son	.	4b^\	son	.	4dd^\	son	.
=30	=30	=30	=30	=30	=30	=30	=30	=30	=30	=30	=30
8EE/L 8E	8e/L 8a 8cc#	.	8e/	pre-	.	8a/	pre-	.	8cc#\	pre-	.
8EE/J 8E	8d/J 8g# 8b	.	8d/	-mier	.	8g#/	-mier	.	8b\	-mier	.
2AAA/ 2AA	2c#/ 2e 2a	.	2c#/	cri	.	2a/	cri	.	2a/	cri	.
=31||	=31||	=31||	=31||	=31||	=31||	=31||	=31||	=31||	=31||	=31||	=31||
!	!	!	!	!	!LO:DY:a	!	!	!LO:DY:a	!	!	!LO:DY:a
2FF#/ 2F#	8f#/L 8a	p	8f#/	De	p	8f#/	De	p	8a/	De	p
.	8c#/J 8g#	.	8c#/	la	.	8c#/	la	.	8g#/	la	.
.	4A/ 4f#	.	4A/	ter-	.	4c#/	ter-	.	4f#/	ter-	.
4FF#/ 4F#	4A/ 4f#	.	4A/	-re	.	4c#/	-re	.	4f#/	-re	.
!LO:LB:g=original	!LO:LB:g=original	!	!LO:LB:g=original	!	!	!LO:LB:g=original	!	!	!LO:LB:g=original	!	!
=32	=32	=32	=32	=32	=32	=32	=32	=32	=32	=32	=32
!	!	!	!	!	!	!	!	!	!	!	!LO:HP:t=cres.
2EE/ 2E	(16b/LL	.	8e/	la-	.	8g#/	la	.	8b/	la	<
.	16d/	.	.	.	.	.	.	.	.	.	.
.	16c#/	.	8e/	-lu-	.	8f#/	lu-	.	8a/	lu-	.
.	16a/JJ)	.	.	.	.	.	.	.	.	.	.
.	4B/ 4g#	.	4e/	-mie-	.	4e/	-mie-	.	4g#/	-mie-	.
4EE/ 4E	4e/	.	4e/	-re	.	4e/	-re	.	4e/	-re	.
=33	=33	=33	=33	=33	=33	=33	=33	=33	=33	=33	=33
8AAA/L 8AA	8e/L 8cc#	.	8A/	ra-	.	8e/	ra-	.	8cc#\	ray-	.
8BBB/J 8BB	8e/J 8b	.	8B/	-yon-	.	8e/	-yon-	.	8b\	-on-	.
4CC#/ 4C#	4e/ 4a	.	4c#/	-ne	.	4e/	-ne	.	4a/	-ne	.
8BBB/L 8BB	8e/L 8g# 8b	.	(8d/L	dans	.	(8e/L	dans	.	(8b\L	dans	.
8AAA/J 8AA	8e/J 8a 8cc#	.	8e/J)	.	.	8a/J)	.	.	8cc#\J)	.	.
=34	=34	=34	=34	=34	=34	=34	=34	=34	=34	=34	=34
8GGG#/L 8GG#	16b/LL 16dd	.	8e/	un	.	8b/	un	.	8dd\	un	.
.	16e/	.	.	.	.	.	.	.	.	.	.
8AAA/J 8AA	16a/ 16cc#	.	8e/	rè-	.	8a/	rè-	.	8cc#\	rè-	.
.	16e/JJ	.	.	.	.	.	.	.	.	.	.
4EE/ 4E	4e/ 4g# 4b	.	4e/	-duit	.	4g#/	-duit	.	4b\	-duit	.
8EE/L 8E	4e/ 4g# 4b	.	4r	.	.	4r	.	.	4r	.	.
8DD/J 8D	.	.	.	.	.	.	.	.	.	.	.
=35	=35	=35	=35	=35	=35	=35	=35	=35	=35	=35	=35
!	!	!	!	!	!	!	!	!	!	!	!LO:DY:a
8CC#/L 8C#	8e^/L 8a 8cc#	f	8A/	ac-	.	8e/	ac-	.	8cc#\	ac-	f
8BBB/J 8BB	8e^/J 8a 8dd	.	8B/	-cou-	.	8e/	-cou-	.	8dd\	-cou-	.
!	!LO:TX:b:t=en elargissant.	!	!	!	!	!	!	!	!	!	!
4AAA/ 4AA	4e^/ 4a 4cc# 4ee	.	4c#/	-rez	.	4e/	-rez	.	4ee\	-rez	.
!	!	!	!	!	!	!	!	!	!LO:TX:a:t=en elargissant.	!	!
4DD/ 4D	4f#^/ 4b 4dd	.	4d^>/	Dieu	.	4f#^>/	Dieu	.	4dd^\	Dieu	.
=36	=36	=36	=36	=36	=36	=36	=36	=36	=36	=36	=36
8EE/L 8E	8e^/L 8a 8cc#	.	8e/	vous	.	8a/	vous	.	8cc#\	vous	.
8EE/J 8E	8d^/J 8g# 8b	.	8d/	con-	.	8g#/	con-	.	8b\	con-	.
4AAA/ 4AA	2c#^/ 2e 2a	.	2c#/	-duit	.	2a/	-duit.	.	2a^\	-duit	.
4ryy	.	.	.	.	.	.	.	.	.	.	.
!LO:LB:g=original	!LO:LB:g=original	!	!LO:LB:g=original	!	!	!LO:LB:g=original	!	!	!LO:LB:g=original	!	!
=37||	=37||	=37||	=37||	=37||	=37||	=37||	=37||	=37||	=37||	=37||	=37||
*^	*	*	*	*	*	*	*	*	*	*	*
8.c#/L	2F#\	8.a^\L 8.aa	mf	2.ryy	.	.	2.ryy	.	.	2.ryy	.	.
16B/Jk	.	16g#\Jk 16gg#	.	.	.	.	.	.	.	.	.	.
4A/	.	4f#\ 4ff#	.	.	.	.	.	.	.	.	.	.
4c#/	4F#\ 4A	4ff#\	.	.	.	.	.	.	.	.	.	.
=38	=38	=38	=38	=38	=38	=38	=38	=38	=38	=38	=38	=38
8.d/L	2E\	8.b^\L 8.bb	.	2.ryy	.	.	2.ryy	.	.	2.ryy	.	.
16c#/Jk	.	16a\Jk 16aa	.	.	.	.	.	.	.	.	.	.
4B/	.	4g#\ 4gg#	.	.	.	.	.	.	.	.	.	.
4G#/	4E\	4ee\	.	.	.	.	.	.	.	.	.	.
=39	=39	=39	=39	=39	=39	=39	=39	=39	=39	=39	=39	=39
8.f#/L	2A\	8.cc#\L 8.ccc#	.	2.ryy	.	.	2.ryy	.	.	2.ryy	.	.
16e/Jk	.	16b\Jk 16bb	.	.	.	.	.	.	.	.	.	.
4c#/	.	4a\ 4aa	.	.	.	.	.	.	.	.	.	.
8d/L	4A\	4aa\	.	.	.	.	.	.	.	.	.	.
8c#/J	.	.	.	.	.	.	.	.	.	.	.	.
=40	=40	=40	=40	=40	=40	=40	=40	=40	=40	=40	=40	=40
8.f#/L	4A\	8.dd^\L 8.ddd	.	2.ryy	.	.	2.ryy	.	.	2.ryy	.	.
16e/Jk	.	16cc#\Jk 16ccc#	.	.	.	.	.	.	.	.	.	.
4d/	8d\L	4b\ 4bb	.	.	.	.	.	.	.	.	.	.
.	8E\	.	.	.	.	.	.	.	.	.	.	.
4ryy	8F#\	4bb\	.	.	.	.	.	.	.	.	.	.
.	8G#\J	.	.	.	.	.	.	.	.	.	.	.
=41	=41	=41	=41	=41	=41	=41	=41	=41	=41	=41	=41	=41
8.a/L	2A\	8.cc#^\L 8.ccc#	ff	2.ryy	.	.	2.ryy	.	.	2.ryy	.	.
16g#/Jk	.	16dd\Jk 16ddd	.	.	.	.	.	.	.	.	.	.
4gn/	.	4ee^\ 4eee	.	.	.	.	.	.	.	.	.	.
8f#/L	4A\	4dd^\ 4ddd	.	.	.	.	.	.	.	.	.	.
8fn/J	.	.	.	.	.	.	.	.	.	.	.	.
*v	*v	*	*	*	*	*	*	*	*	*	*	*
=42	=42	=42	=42	=42	=42	=42	=42	=42	=42	=42	=42
8e^\L	8cc#^\L 8ccc#	.	2.ryy	.	.	2.ryy	.	.	2.ryy	.	.
8E^\J 8G# 8d	8b^\J 8bb	.	.	.	.	.	.	.	.	.	.
2A^\ 2c#	2a^\ 2aa	.	.	.	.	.	.	.	.	.	.
!LO:LB:g=original	!LO:LB:g=original	!LO:LB:g=original	!	!LO:LB:g=original	!	!	!LO:LB:g=original	!	!	!LO:LB:g=original	!
=43||	=43||	=43||	=43||	=43||	=43||	=43||	=43||	=43||	=43||	=43||	=43||
!	!	!	!	!	!	!	!	!LO:DY:a	!LO:TX:a:t=e3. COUPLET.	!	!LO:DY:a
2AA\ 2A	16r	.	8c#/	Ve-	.	8e/	Ve-	f	8e/	Ve-	f
.	(16e\LL	.	.	.	.	.	.	.	.	.	.
.	16ee\	.	8c#/	-nez	.	8e/	-nez	.	8e/	-nez	.
.	16e\JJ)	.	.	.	.	.	.	.	.	.	.
.	8ee'\L	.	4c#/	ri-	.	4e/	ri-	.	4a/	ri-	.
.	8cc#\J 8ee	.	.	.	.	.	.	.	.	.	.
4AA\ 4A	8r	.	4c#/	-ches	.	4e/	-ches	.	4a/	-ches	.
.	8a\ 8cc#	.	.	.	.	.	.	.	.	.	.
=44	=44	=44	=44	=44	=44	=44	=44	=44	=44	=44	=44
2E\ 2G#	16r	.	8e/	de	.	8e/	de	.	8g#/	de	.
.	16e\LL	.	.	.	.	.	.	.	.	.	.
.	16ee\	.	8e/	la	.	8f#/	la	.	8a/	la	.
.	16e\JJ	.	.	.	.	.	.	.	.	.	.
.	8ee'\L	.	4e/	ter-	.	4g#/	ter-	.	4b/	ter-	.
.	8g#\J 8ee	.	.	.	.	.	.	.	.	.	.
4EE/ 4E	8r	.	4d/	-re	.	4g#/	-re	.	4b/	-re	.
.	8b\ 8dd	.	.	.	.	.	.	.	.	.	.
=45	=45	=45	=45	=45	=45	=45	=45	=45	=45	=45	=45
2AA/ 2E	16r	.	8c#/	Et	.	8a/	Et	.	8cc#\	Et	.
.	16e\LL	.	.	.	.	.	.	.	.	.	.
.	16ee\	.	8B/	vous	.	8a/	vous	.	8dd\	vous	.
.	16e\JJ	.	.	.	.	.	.	.	.	.	.
.	8ee'\L	.	4c#/	pau-	.	4a/	pau-	.	4ee\	pau-	.
.	8a\ 8cc#	.	.	.	.	.	.	.	.	.	.
4DD/ 4D	8b\ 8dd	.	4d/	-vres	.	4b/	-vres	.	4dd\	-vres	.
.	8dd\J 8ff#	.	.	.	.	.	.	.	.	.	.
=46	=46	=46	=46	=46	=46	=46	=46	=46	=46	=46	=46
8EE/L 8C# 8E	16r	.	8e/	du	.	8a/	du	.	8cc#\	du	.
.	(16e\LL	.	.	.	.	.	.	.	.	.	.
8EE/J 8C# 8E	16ee\	.	8e/	ha-	.	8g#/	ha-	.	8b\	ha-	.
.	16e\JJ)	.	.	.	.	.	.	.	.	.	.
4AA/ 4C# 4E	(16ee\LL	.	2c#/	-meau	.	2a/	-meau	.	2a\	-meau	.
.	16dd\	.	.	.	.	.	.	.	.	.	.
.	16cc#\	.	.	.	.	.	.	.	.	.	.
.	16b\JJ	.	.	.	.	.	.	.	.	.	.
4r	16a/LL	.	.	.	.	.	.	.	.	.	.
.	16g#/	.	.	.	.	.	.	.	.	.	.
.	16f#/	.	.	.	.	.	.	.	.	.	.
.	16e/JJ)	.	.	.	.	.	.	.	.	.	.
!LO:LB:g=original	!LO:LB:g=original	!	!LO:LB:g=original	!	!	!LO:LB:g=original	!	!	!LO:LB:g=original	!	!
=47	=47	=47	=47	=47	=47	=47	=47	=47	=47	=47	=47
!	!	!	!	!	!LO:DY:a	!	!	!LO:DY:a	!	!	!LO:DY:a
2AA\ 2A	16r	p	8c#/	a-	p	8e/	a-	p	8e/	a-	p
.	16e\LL	.	.	.	.	.	.	.	.	.	.
.	16ee\	.	8c#/	-do-	.	8e/	-do-	.	8e/	-do-	.
.	16e\JJ	.	.	.	.	.	.	.	.	.	.
.	8ee'\L	.	4A/	-rer	.	4c#/	-rer	.	4a/	-rer	.
.	8cc#\J 8ee	.	.	.	.	.	.	.	.	.	.
4AA\ 4A	8r	.	4c#/	en	.	4e/	en	.	4a/	en	.
.	8a\ 8cc#	.	.	.	.	.	.	.	.	.	.
=48	=48	=48	=48	=48	=48	=48	=48	=48	=48	=48	=48
2E\ 2G#	16r	.	8e/	la	.	8e/	la	.	8g#/	la	.
.	16e\LL	.	.	.	.	.	.	.	.	.	.
.	16ee\	.	8e/	mi-	.	8f#/	mi-	.	8a/	mi-	.
.	16e\JJ	.	.	.	.	.	.	.	.	.	.
.	8ee'\L	.	4e/	-sè-	.	4g#/	-sè-	.	4b\	-sè-	.
.	8g#\J 8ee	.	.	.	.	.	.	.	.	.	.
4EE/ 4E	8r	.	4e/	-re	.	4g#/	-re	.	4b\	-re	.
.	8b\ 8dd	.	.	.	.	.	.	.	.	.	.
=49	=49	=49	=49	=49	=49	=49	=49	=49	=49	=49	=49
!	!	!	!	!	!LO:DY:a	!	!	!LO:DY:a	!	!	!LO:DY:a
8AAA/L 8AA	16a/LL 16cc#	f	8A/	L'en-	f	8a/	L'en-	f	8cc#\	L'en-	f
.	16e/	.	.	.	.	.	.	.	.	.	.
8BBB/J 8BB	16a/ 16dd	.	8B/	-fant	.	8a/	-fant	.	8dd\	-fant	.
.	16e/JJ	.	.	.	.	.	.	.	.	.	.
4CC#/ 4C#	4e/ 4a 4ee	.	4c#/	bé-	.	4a/	bé-	.	4ee\	bé-	.
4DD^/ 4D	4f#^/ 4b 4dd	.	4d/	-ni	.	4f#/	-ni	.	4dd\	-ni	.
=50	=50	=50	=50	=50	=50	=50	=50	=50	=50	=50	=50
8EE^/L 8E	8e^/L 8a 8cc#	.	8e/	du	.	8a/	du-	.	8cc#\	du	.
8EE^/J 8E	8e^/J 8g# 8b 8ee	.	8d/	très	.	8g#/	-très	.	8b\	trèes	.
4AA^/ 4E	4e^/ 4a 4cc#	.	2c#/	haut	.	2a/	haut	.	2a\	haut	.
4r	4r	.	.	.	.	.	.	.	.	.	.
=51	=51	=51	=51	=51	=51	=51	=51	=51	=51	=51	=51
!	!	!	!	!	!LO:DY:a	!	!	!LO:DY:a	!	!	!LO:DY:a
4.FF#/ 4.F#	16a/LL	p	8f#/	Voi-	p	8f#/	Voi-	p	8a/	Voi-	p
.	16c#/	.	.	.	.	.	.	.	.	.	.
.	16g#/	.	8c#/	-ci	.	8c#/	-ci	.	8g#/	-ci	.
.	16c#/JJ	.	.	.	.	.	.	.	.	.	.
.	4a/	.	4A/	l'heu-	.	4c#/	l'heu-	.	4f#/	l'heu-	.
8F#/L	.	.	.	.	.	.	.	.	.	.	.
8C#/	4A/ 4c# 4f#	.	4A/	-re	.	4c#/	-re	.	4f#/	-re	.
8FF#/J	.	.	.	.	.	.	.	.	.	.	.
!LO:LB:g=original	!LO:LB:g=original	!	!LO:LB:g=original	!	!	!LO:LB:g=original	!	!	!LO:LB:g=original	!	!
=52	=52	=52	=52	=52	=52	=52	=52	=52	=52	=52	=52
!	!	!LO:HP:t=cres.	!	!	!LO:HP:t=cres.	!	!	!LO:HP:t=cres.	!	!	!LO:HP:t=cres.
4.EE/ 4.E	16b/LL	<	8e/	Jé-	<	8g#/	Jé-	<	8b/	Jé-	<
.	16e/	.	.	.	.	.	.	.	.	.	.
.	16a/	.	8e/	-sus	.	8f#/	-sus	.	8a/	-sus	.
.	16e/JJ	.	.	.	.	.	.	.	.	.	.
.	4g#/	.	4e/	pleu-	.	4e/	pleu-	.	4g#/	pleu-	.
8E/L	.	.	.	.	.	.	.	.	.	.	.
8EE/	4B/ 4e 4g#	.	4e/	-re	.	4e/	-re	.	4e/	-re	.
8E/J	.	.	.	.	.	.	.	.	.	.	.
=53	=53	=53	=53	=53	=53	=53	=53	=53	=53	=53	=53
4.AA/	16cc#/LL	.	8e/	chan-	.	8a/	chan-	.	8cc#\	chan-	.
.	16e/	.	.	.	.	.	.	.	.	.	.
.	16b/	.	8e/	-tons	.	8g#/	-tons	.	8b\	-tons	.
.	16e/JJ	.	.	.	.	.	.	.	.	.	.
.	4c#/ 4a	.	4c#/	un	.	4a/	un	.	4a/	un	.
8AA\L	.	.	.	.	.	.	.	.	.	.	.
8E\	8d/L 8b	.	(8d/L	hym-	.	(8g#/L	hym-	.	(8b\L	hym-	.
8A\J	8e/J 8cc#	.	8e/J)	.	.	8a/J)	.	.	8cc#\J)	.	.
=54	=54	=54	=54	=54	=54	=54	=54	=54	=54	=54	=54
8GG#/L 8G#	(16b/LL 16dd	.	8e/	-ne	.	8g#/	-ne	.	8dd\	-ne	.
.	16e/	.	.	.	.	.	.	.	.	.	.
8AA/J 8A	16a/ 16cc#	.	8e/	nou-	.	8a/	nou-	.	8cc#\	nou-	.
.	16e/JJ)	.	.	.	.	.	.	.	.	.	.
8EE/L 8E	2e/ 2g# 2b	.	2e/	-veau	.	2g#/	-veau	.	2b\	-veau	.
8DD/ 8D	.	.	.	.	.	.	.	.	.	.	.
8CC#/ 8C#	.	.	.	.	.	.	.	.	.	.	.
8BBB/J 8BB	.	.	.	.	.	.	.	.	.	.	.
=55	=55	=55	=55	=55	=55	=55	=55	=55	=55	=55	=55
!LO:TX:a:t=lento.	!	!	!	!	!LO:DY:a	!LO:TX:a:t=lento.	!	!LO:DY:a	!	!	!LO:DY:a
8AAA/L 8AA	8e/L 8cc#	f	8A/	a	f	8e/	a	f	8cc#\	a	f
!	!	!	!LO:TX:a:t=lento.	!	!	!	!	!	!LO:TX:a:t=lento	!	!
8BBB/J 8BB	8e/J 8dd	.	8B/	cô-	.	8e/	cô-	.	8dd\	cô-	.
4CC#/ 4C#	4e/ 4a 4ee	.	4c#/	-té	.	4e/	-té	.	4ee\	-té	.
4DD/ 4D	4f#/ 4b 4dd	.	(8d/L	de	.	4b/	de	.	4dd\	de	.
.	.	.	8f#/J)	.	.	.	.	.	.	.	.
=56	=56	=56	=56	=56	=56	=56	=56	=56	=56	=56	=56
8EE/L 8E	8e/L 8a 8cc#	.	8e/	son	.	8a\	son	.	8cc#\	son	.
8EE/J 8E	8e/J 8g# 8b 8ee	.	8g#/	ber-	.	8b\	ber-	.	8ee\	ber-	.
2AAA;</ 2AA	2a^<\ 2cc# 2aa	sf	2a/	-ceau	.	2cc#;\	-ceau	.	2aa;\	-ceau	.
==	==	==	==	==	==	==	==	==	==	==	==
*-	*-	*-	*-	*-	*-	*-	*-	*-	*-	*-	*-
!!!RDF**kern: > = above
!!!RDF**kern: < = below
!!!system-decoration: [(s1,s2,s3)][(s4,s5)]
!!!ENC: Andrzej Gręziak
!!!END: 2022-08-08
!!!ENC: Julita Ruszuk
!!!END: 2022-09-04!!!YEC: Copyright 2022 Narodowy Instytut Fryderyka Chopina (https://polishscores.org)
!!!YEM: License CC-BY-4.0 (https://creativecommons.org/licenses/by/4.0)
